X: 308
T:Cela sans plus
N: Derived from Jos2703-Cela_sans_plus.krn
C: Josquin des Prez
%%abc-version 2.0
%%abcx-abcm2ps-target-version 5.9.1 (29 Sep 2008)
%%abc-creator hum2abc beta
%%abcx-conversion-date 2019/02/12 16:15:54
%%abc-edited-by Jesse Rodin
%%abc-edited-by Jesse Rodin; Victoria Chang 2011/05/30/
%%abcx-initial-encoding-date 2011/05/30/
%%humdrum-veritas 725361150
%%humdrum-veritas-data 1702692276
%%linebreak <none>
%%barnumbers 0
L: 1/4
M: 2/1
Q: 1/2=120
V: 1 clef=treble
V: 2 clef=treble-8
V: 3 clef=bass
K: Bb
[V:1] D4=E4 | 
[V:2] z8 | 
[V:3] z8 | 
[V:1] F4G4- | 
[V:2] z8 | 
[V:3] z8 | 
[V:1] G4=E2F2 | 
[V:2] G4A4 | 
[V:3] z8 | 
[V:1] D4C4 | 
[V:2] B4c4- | 
[V:3] z8 | 
[V:1] =E4F4 | 
[V:2] c4A2B2 | 
[V:3] C,4D,4 | 
[V:1] G4A4- | 
[V:2] G4F4 | 
[V:3] E,4F,4- | 
[V:1] A4F2G2 | 
[V:2] A4B4 | 
[V:3] F,4D,2E,2 | 
[V:1] =E4D4 | 
[V:2] c4d4- | 
[V:3] C,4B,,4 | 
[V:1] F4G4 | 
[V:2] d4B2c2 | 
[V:3] D,4E,4 | 
[V:1] A4B3A | 
[V:2] A4G4 | 
[V:3] F,4G,4- | 
[V:1] G2F2=E4 | 
[V:2] B4c4 | 
[V:3] G,4A,4 | 
[V:1] D4G4- | 
[V:2] d4e3d | 
[V:3] B,4E,4- | 
[V:1] G4^F4 | 
[V:2] c2B2A4 | 
[V:3] E,2F,G,D,4 | 
[V:1] G8 | 
[V:2] G4c4- | 
[V:3] E,4C,4 | 
[V:1] z8 | 
[V:2] c4=B4 | 
[V:3] G,8 | 
[V:1] A8 | 
[V:2] c8 | 
[V:3] F,8- | 
[V:1] A4A4 | 
[V:2] z8 | 
[V:3] F,8 | 
[V:1] B4A2B2- | 
[V:2] d8 | 
[V:3] B,,4F,2G,2- | 
[V:1] B2AGF4 | 
[V:2] d4d4 | 
[V:3] G,2F,E,D,4 | 
[V:1] G4F2G2- | 
[V:2] e4d2e2- | 
[V:3] C,4z2C,2- | 
[V:1] G2F=ED4 | 
[V:2] e2dcB4 | 
[V:3] C,D,E,F,G,4 | 
[V:1] z4G4 | 
[V:2] c4B2c2- | 
[V:3] C,4E,4- | 
[V:1] G4G4 | 
[V:2] c2BAG4 | 
[V:3] E,2D,C,E,2F,G, | 
[V:1] =E3FG2A2 | 
[V:2] z4c4 | 
[V:3] C,8- | 
[V:1] G2A4G2 | 
[V:2] c4c4 | 
[V:3] C,8 | 
[V:1] A2c4B2 | 
[V:2] A3Bc2d2 | 
[V:3] F,6F,2 | 
[V:1] A4G4 | 
[V:2] c2f4=e2 | 
[V:3] F,4C,4 | 
[V:1] F6GA | 
[V:2] f6=e2 | 
[V:3] D,4B,,4 | 
[V:1] B2A3GF=E | 
[V:2] d4c4 | 
[V:3] z4F,4 | 
[V:1] D4G4- | 
[V:2] B6cd | 
[V:3] G,8 | 
[V:1] G2ABc4 | 
[V:2] e6dc | 
[V:3] C,8 | 
[V:1] B2A4GF | 
[V:2] d2c4B2 | 
[V:3] z4D,4 | 
[V:1] !fermata!=E8 ||  
[V:2] !fermata!c8 ||  
[V:3] !fermata!A,8 ||  
[V:1] z4D4- | 
[V:2] G8- | 
[V:3] B,6A,G, | 
[V:1] D2=EFG4 | 
[V:2] G8 | 
[V:3] B,A,G,F,E,4 | 
[V:1] F4=E4- | 
[V:2] A8- | 
[V:3] D,4C,2C2- | 
[V:1] E2FGA4 | 
[V:2] A8 | 
[V:3] CB,A,G,F,4 | 
[V:1] G4F4- | 
[V:2] B8- | 
[V:3] E,4D,2D2- | 
[V:1] F2GAB4 | 
[V:2] B8 | 
[V:3] DCB,A,G,4 | 
[V:1] A4G4- | 
[V:2] c8- | 
[V:3] F,4E,2E2- | 
[V:1] G2ABc4 | 
[V:2] c8 | 
[V:3] EDCB,A,4 | 
[V:1] B4A4 | 
[V:2] d8- | 
[V:3] G,4F,2F2- | 
[V:1] z4d4- | 
[V:2] d8 | 
[V:3] FEDCB,2A,G, | 
[V:1] d4c4 | 
[V:2] z8 | 
[V:3] B,4A,4 | 
[V:1] B4A4- | 
[V:2] d8 | 
[V:3] G,4D,4 | 
[V:1] A4G4 | 
[V:2] c4B4 | 
[V:3] F,4G,4 | 
[V:1] c8 | 
[V:2] A8 | 
[V:3] A,4F,4 | 
[V:1] B4A4 | 
[V:2] G4c4- | 
[V:3] G,2E,2F,3E, | 
[V:1] G6F=E | 
[V:2] c4B4 | 
[V:3] C,D,E,F,G,2A,B, | 
[V:1] F2GAB4- | 
[V:2] A4G4- | 
[V:3] C4D4 | 
[V:1] B2AGAGF=E | 
[V:2] G2F=EF2GA | 
[V:3] z4D,4 | 
[V:1] D2=EFG2A2- | 
[V:2] B2GAB2c2- | 
[V:3] DCB,A,G,2F,2 | 
[V:1] AG^F=EF4 | 
[V:2] cBAGA4 | 
[V:3] E,4D,4 | 
[V:1] G8- | 
[V:2] G8- | 
[V:3] E,6D,C, | 
[V:1] G8 |]  
[V:2] G8 |]  
[V:3] G,8 |]  



